tanigaki-corporate/assets/images/common/common_logo01.svg

<svg width="295" height="54" viewBox="0 0 295 54" fill="none" xmlns="http://www.w3.org/2000/svg">
<path fill-rule="evenodd" clip-rule="evenodd" d="M27 54C41.9117 54 54 41.9117 54 27C54 12.0883 41.9117 0 27 0C12.0883 0 0 12.0883 0 27C0 41.9117 12.0883 54 27 54ZM27 50.4006C39.9235 50.4006 50.4 39.924 50.4 27.0006C50.4 14.0771 39.9235 3.60059 27 3.60059C14.0766 3.60059 3.60004 14.0771 3.60004 27.0006C3.60004 39.924 14.0766 50.4006 27 50.4006Z" fill="black"/>
<rect x="14.3999" y="7.2002" width="25.2" height="3.6" fill="black"/>
<path fill-rule="evenodd" clip-rule="evenodd" d="M43.1137 30.4836C42.2709 38.6389 35.3783 44.9987 27.0003 44.9987C18.0533 44.9987 10.8003 37.7457 10.8003 28.7987C10.8003 21.089 16.1859 14.6371 23.4003 13.0001V16.7211C18.1956 18.2701 14.4003 23.0914 14.4003 28.7993C14.4003 35.7581 20.0415 41.3993 27.0003 41.3993C33.388 41.3993 38.6655 36.6461 39.4887 30.4836H43.1137ZM43.131 27.2901C42.4816 20.2586 37.3386 14.5291 30.6003 13.0001V16.721C35.3393 18.1314 38.9098 22.2548 39.5109 27.2901H43.131ZM28.8003 12.6976V16.3269C28.2124 16.2428 27.6115 16.1993 27.0003 16.1993C26.3892 16.1993 25.7882 16.2428 25.2003 16.3269V12.6976C25.7913 12.6322 26.3919 12.5987 27.0003 12.5987C27.6087 12.5987 28.2093 12.6322 28.8003 12.6976Z" fill="black"/>
<rect x="28.7998" y="10.7998" width="28.8" height="3.6" transform="rotate(90 28.7998 10.7998)" fill="black"/>
<rect x="28.7998" y="46.7998" width="5.4" height="3.6" transform="rotate(90 28.7998 46.7998)" fill="black"/>
<path d="M75.024 37.112V39.104H86.976V37.112H75.024ZM74.184 30.248V40.04H76.512V32.264H85.512V40.016H87.936V30.248H74.184ZM80.928 24.56C83.088 27.632 87.144 31.016 90.816 33.008C91.224 32.336 91.728 31.568 92.28 31.016C88.512 29.336 84.48 26.048 81.96 22.352H79.68C77.88 25.496 73.968 29.168 69.888 31.256C70.368 31.736 70.992 32.528 71.28 33.056C75.216 30.872 78.984 27.512 80.928 24.56ZM82.968 19.352C85.272 21.056 88.056 23.528 89.304 25.184L91.224 23.792C89.856 22.112 87 19.736 84.744 18.128L82.968 19.352ZM76.656 18.224C75.24 20.336 72.864 22.472 70.56 23.792C71.088 24.176 72 24.992 72.408 25.424C74.664 23.912 77.232 21.464 78.888 19.016L76.656 18.224ZM106.536 18.968V21.056H120.552V18.968H106.536ZM109.32 27.92V29.744H117.84V27.92H109.32ZM104.64 37.016V39.128H120.936V37.016H104.64ZM98.952 23.576V25.736H106.344V23.576H98.952ZM101.664 18.104V33.872H103.848V18.104H101.664ZM98.472 33.944L99.264 36.248C101.472 35.384 104.328 34.28 106.992 33.2L106.56 31.112C103.608 32.192 100.512 33.296 98.472 33.944ZM110.328 25.208H116.664V32.792H110.328V25.208ZM108.192 23.24V34.76H118.92V23.24H108.192ZM129.048 20.36V22.712H148.224V20.36H129.048ZM127.752 35.984V38.264H149.496V35.984H127.752ZM137.232 21.608V36.92H139.8V21.608H137.232ZM156.84 32.504V34.4H178.032V32.504H156.84ZM156.912 21.872V23.768H177.936V21.872H156.912ZM157.896 26.072V27.896H177.048V26.072H157.896ZM159.096 29.336V31.04H175.896V29.336H159.096ZM166.224 26.96V40.04H168.48V26.96H166.224ZM164.064 17.72V22.784H166.2V17.72H164.064ZM168.576 17.72V22.664H170.736V17.72H168.576ZM165.672 33.32C163.656 35.288 159.744 37.016 156.168 37.784C156.648 38.24 157.32 39.128 157.632 39.68C161.256 38.696 165.216 36.632 167.472 34.136L165.672 33.32ZM169.056 33.248L167.28 33.992C169.536 36.608 173.4 38.744 177.12 39.728C177.456 39.104 178.128 38.168 178.656 37.688C174.96 36.992 171.048 35.288 169.056 33.248ZM174.12 17.984C173.76 19.064 173.016 20.6 172.416 21.584L174.264 22.184C174.912 21.248 175.752 19.904 176.472 18.584L174.12 17.984ZM170.928 23.096C170.664 23.96 170.088 25.208 169.632 26.072L171.552 26.624C172.056 25.856 172.68 24.776 173.304 23.672L170.928 23.096ZM158.76 18.608C159.48 19.712 160.296 21.224 160.608 22.184L162.648 21.416C162.312 20.456 161.472 18.992 160.704 17.936L158.76 18.608ZM161.856 23.888C162.312 24.632 162.768 25.712 162.96 26.384L165.24 25.952C165.024 25.256 164.52 24.248 164.04 23.504L161.856 23.888ZM193.992 28.016V30.08H207.144V28.016H193.992ZM196.392 22.112V24.176H206.4V22.112H196.392ZM199.536 17.744V40.016H201.744V17.744H199.536ZM198.816 29.024C197.568 32.264 195.12 35.504 192.528 37.136C193.032 37.544 193.704 38.336 194.064 38.888C196.752 36.92 199.2 33.344 200.592 29.576L198.816 29.024ZM202.56 29.144L200.952 29.648C202.08 33.056 204.072 36.704 206.16 38.696C206.52 38.12 207.288 37.328 207.792 36.92C205.728 35.264 203.64 32.12 202.56 29.144ZM195.936 18.896C195.528 21.728 194.784 24.512 193.536 26.312C194.064 26.552 194.952 27.128 195.36 27.44C196.632 25.472 197.544 22.424 198.024 19.256L195.936 18.896ZM185.352 22.328V24.416H193.824V22.328H185.352ZM188.664 17.744V40.016H190.896V17.744H188.664ZM188.64 23.792C187.968 27.032 186.456 31.04 184.824 33.128C185.232 33.704 185.736 34.736 185.976 35.384C187.656 32.912 189.216 28.208 189.912 24.272L188.64 23.792ZM190.776 25.04L189.744 25.88C190.392 26.984 191.928 29.936 192.456 31.28L193.8 29.696C193.368 28.952 191.352 25.76 190.776 25.04ZM230.064 19.112C231.24 19.952 232.656 21.2 233.328 22.04L234.936 20.648C234.216 19.832 232.752 18.632 231.576 17.84L230.064 19.112ZM214.272 22.064V24.272H235.752V22.064H214.272ZM215.136 27.488V29.696H225.648V27.488H215.136ZM219.168 28.712V37.088H221.424V28.712H219.168ZM214.32 37.064L214.992 39.344C218.088 38.672 222.432 37.712 226.464 36.8L226.296 34.76C221.904 35.648 217.2 36.56 214.32 37.064ZM226.32 17.84C226.368 29.264 228.12 40.064 233.088 40.064C235.128 40.064 235.944 38.888 236.304 34.52C235.68 34.28 234.816 33.752 234.312 33.224C234.168 36.368 233.88 37.688 233.28 37.688C230.616 37.688 228.6 28.424 228.744 17.84H226.32ZM244.08 37.016L244.368 39.248C248.664 39.08 255.096 38.792 261.072 38.48L261.144 36.392C254.976 36.656 248.304 36.896 244.08 37.016ZM243.912 29.72V31.856H263.832V29.72H243.912ZM248.088 25.112V27.2H259.464V25.112H248.088ZM250.176 31.088C249.504 33.152 248.208 35.984 247.152 37.808L249.144 38.48C250.272 36.752 251.616 34.088 252.744 31.808L250.176 31.088ZM256.008 33.608C258.096 35.504 260.448 38.264 261.504 40.088L263.568 38.816C262.464 36.992 260.16 34.424 257.952 32.552L256.008 33.608ZM253.728 19.976C255.888 22.952 260.04 26.072 263.712 27.824C264.12 27.152 264.648 26.336 265.2 25.784C261.384 24.296 257.352 21.344 254.808 17.792H252.432C250.608 20.768 246.672 24.224 242.544 26.12C243.024 26.6 243.624 27.44 243.888 27.992C247.92 26.024 251.784 22.808 253.728 19.976ZM280.368 37.112V39.344H293.976V37.112H280.368ZM281.328 25.424V27.608H293.424V25.424H281.328ZM286.224 17.96V38.192H288.552V17.96H286.224ZM271.872 22.232V24.296H279.792V22.232H271.872ZM275.52 29.864V40.04H277.752V27.176L275.52 29.864ZM275.52 17.768V23.216H277.752V17.768H275.52ZM277.536 27.8L276.264 28.928C277.296 29.864 279.504 32.12 280.416 33.248L281.784 31.4C281.136 30.8 278.376 28.376 277.536 27.8ZM278.952 22.232V22.664C277.584 26.264 274.272 29.864 271.008 31.712C271.368 32.144 271.92 33.224 272.136 33.824C275.616 31.592 279.288 27.512 281.088 22.976L279.816 22.136L279.408 22.232H278.952Z" fill="black"/>
</svg>

<?xml version="1.0" encoding="utf-8"?>
<!-- Generator: Adobe Illustrator 27.2.0, SVG Export Plug-In . SVG Version: 6.00 Build 0)  -->
<svg version="1.1" id="レイヤー_1" xmlns="http://www.w3.org/2000/svg" xmlns:xlink="http://www.w3.org/1999/xlink" x="0px"
	 y="0px" viewBox="0 0 295 54" style="enable-background:new 0 0 295 54;" xml:space="preserve">
<style type="text/css">
	.st0{fill:none;}
	.st1{fill:#FF0010;}
</style>
<path d="M75,37.1v2h12v-2H75z M74.2,30.2V40h2.3v-7.8h9V40h2.4v-9.8H74.2z M80.9,24.6c2.2,3.1,6.2,6.5,9.9,8.4
	c0.4-0.7,0.9-1.4,1.5-2c-3.8-1.7-7.8-5-10.3-8.7h-2.3c-1.8,3.1-5.7,6.8-9.8,8.9c0.5,0.5,1.1,1.3,1.4,1.8
	C75.2,30.9,79,27.5,80.9,24.6z M83,19.4c2.3,1.7,5.1,4.2,6.3,5.8l1.9-1.4c-1.4-1.7-4.2-4.1-6.5-5.7L83,19.4z M76.7,18.2
	c-1.4,2.1-3.8,4.2-6.1,5.6c0.5,0.4,1.4,1.2,1.8,1.6c2.3-1.5,4.8-4,6.5-6.4L76.7,18.2z M106.5,19v2.1h14V19H106.5z M109.3,27.9v1.8
	h8.5v-1.8H109.3z M104.6,37v2.1h16.3V37H104.6z M99,23.6v2.2h7.4v-2.2H99z M101.7,18.1v15.8h2.2V18.1H101.7z M98.5,33.9l0.8,2.3
	c2.2-0.9,5.1-2,7.7-3l-0.4-2.1C103.6,32.2,100.5,33.3,98.5,33.9z M110.3,25.2h6.3v7.6h-6.3V25.2z M108.2,23.2v11.5h10.7V23.2H108.2z
	 M129,20.4v2.4h19.2v-2.4H129z M127.8,36v2.3h21.7V36H127.8z M137.2,21.6v15.3h2.6V21.6H137.2z M156.8,32.5v1.9H178v-1.9H156.8z
	 M156.9,21.9v1.9h21v-1.9H156.9z M157.9,26.1v1.8H177v-1.8H157.9z M159.1,29.3V31h16.8v-1.7H159.1z M166.2,27V40h2.3V27H166.2z
	 M164.1,17.7v5.1h2.1v-5.1H164.1z M168.6,17.7v4.9h2.2v-4.9H168.6z M165.7,33.3c-2,2-5.9,3.7-9.5,4.5c0.5,0.5,1.2,1.3,1.5,1.9
	c3.6-1,7.6-3,9.8-5.5L165.7,33.3z M169.1,33.2l-1.8,0.7c2.3,2.6,6.1,4.8,9.8,5.7c0.3-0.6,1-1.6,1.5-2C175,37,171,35.3,169.1,33.2z
	 M174.1,18c-0.4,1.1-1.1,2.6-1.7,3.6l1.8,0.6c0.6-0.9,1.5-2.3,2.2-3.6L174.1,18z M170.9,23.1c-0.3,0.9-0.8,2.1-1.3,3l1.9,0.6
	c0.5-0.8,1.1-1.8,1.8-3L170.9,23.1z M158.8,18.6c0.7,1.1,1.5,2.6,1.8,3.6l2-0.8c-0.3-1-1.2-2.4-1.9-3.5L158.8,18.6z M161.9,23.9
	c0.5,0.7,0.9,1.8,1.1,2.5l2.3-0.4c-0.2-0.7-0.7-1.7-1.2-2.4L161.9,23.9z M194,28v2.1h13.2V28H194z M196.4,22.1v2.1h10v-2.1H196.4z
	 M199.5,17.7V40h2.2V17.7H199.5z M198.8,29c-1.2,3.2-3.7,6.5-6.3,8.1c0.5,0.4,1.2,1.2,1.5,1.8c2.7-2,5.1-5.5,6.5-9.3L198.8,29z
	 M202.6,29.1l-1.6,0.5c1.1,3.4,3.1,7.1,5.2,9c0.4-0.6,1.1-1.4,1.6-1.8C205.7,35.3,203.6,32.1,202.6,29.1z M195.9,18.9
	c-0.4,2.8-1.2,5.6-2.4,7.4c0.5,0.2,1.4,0.8,1.8,1.1c1.3-2,2.2-5,2.7-8.2L195.9,18.9z M185.4,22.3v2.1h8.5v-2.1H185.4z M188.7,17.7
	V40h2.2V17.7H188.7z M188.6,23.8c-0.7,3.2-2.2,7.2-3.8,9.3c0.4,0.6,0.9,1.6,1.2,2.3c1.7-2.5,3.2-7.2,3.9-11.1L188.6,23.8z M190.8,25
	l-1,0.8c0.6,1.1,2.2,4.1,2.7,5.4l1.3-1.6C193.4,29,191.4,25.8,190.8,25z M230.1,19.1c1.2,0.8,2.6,2.1,3.3,2.9l1.6-1.4
	c-0.7-0.8-2.2-2-3.4-2.8L230.1,19.1z M214.3,22.1v2.2h21.5v-2.2H214.3z M215.1,27.5v2.2h10.5v-2.2H215.1z M219.2,28.7v8.4h2.3v-8.4
	H219.2z M214.3,37.1l0.7,2.3c3.1-0.7,7.4-1.6,11.5-2.5l-0.2-2C221.9,35.6,217.2,36.6,214.3,37.1z M226.3,17.8
	c0,11.4,1.8,22.2,6.8,22.2c2,0,2.9-1.2,3.2-5.5c-0.6-0.2-1.5-0.8-2-1.3c-0.1,3.1-0.4,4.5-1,4.5c-2.7,0-4.7-9.3-4.5-19.8H226.3z
	 M244.1,37l0.3,2.2c4.3-0.2,10.7-0.5,16.7-0.8l0.1-2.1C255,36.7,248.3,36.9,244.1,37z M243.9,29.7v2.1h19.9v-2.1H243.9z M248.1,25.1
	v2.1h11.4v-2.1H248.1z M250.2,31.1c-0.7,2.1-2,4.9-3,6.7l2,0.7c1.1-1.7,2.5-4.4,3.6-6.7L250.2,31.1z M256,33.6
	c2.1,1.9,4.4,4.7,5.5,6.5l2.1-1.3c-1.1-1.8-3.4-4.4-5.6-6.3L256,33.6z M253.7,20c2.2,3,6.3,6.1,10,7.8c0.4-0.7,0.9-1.5,1.5-2
	c-3.8-1.5-7.8-4.4-10.4-8h-2.4c-1.8,3-5.8,6.4-9.9,8.3c0.5,0.5,1.1,1.3,1.3,1.9C247.9,26,251.8,22.8,253.7,20z M280.4,37.1v2.2H294
	v-2.2H280.4z M281.3,25.4v2.2h12.1v-2.2H281.3z M286.2,18v20.2h2.3V18H286.2z M271.9,22.2v2.1h7.9v-2.1H271.9z M275.5,29.9V40h2.2
	V27.2L275.5,29.9z M275.5,17.8v5.4h2.2v-5.4H275.5z M277.5,27.8l-1.3,1.1c1,0.9,3.2,3.2,4.2,4.3l1.4-1.8
	C281.1,30.8,278.4,28.4,277.5,27.8z M279,22.2v0.4c-1.4,3.6-4.7,7.2-7.9,9c0.4,0.4,0.9,1.5,1.1,2.1c3.5-2.2,7.2-6.3,9-10.8l-1.3-0.8
	l-0.4,0.1H279z"/>
<rect y="0" class="st0" width="54" height="54"/>
<path d="M27,3.6c12.9,0,23.4,10.5,23.4,23.4c0,12.9-10.5,23.4-23.4,23.4C14.1,50.4,3.6,39.9,3.6,27C3.6,14.1,14.1,3.6,27,3.6z M27,0
	c-3.6,0-7.2,0.7-10.5,2.1c-3.2,1.4-6.1,3.3-8.6,5.8c-2.5,2.5-4.4,5.4-5.8,8.6C0.7,19.8,0,23.4,0,27c0,3.6,0.7,7.2,2.1,10.5
	c1.4,3.2,3.3,6.1,5.8,8.6c2.5,2.5,5.4,4.4,8.6,5.8C19.8,53.3,23.4,54,27,54s7.2-0.7,10.5-2.1c3.2-1.4,6.1-3.3,8.6-5.8
	c2.5-2.5,4.4-5.4,5.8-8.6C53.3,34.2,54,30.6,54,27s-0.7-7.2-2.1-10.5c-1.4-3.2-3.3-6.1-5.8-8.6c-2.5-2.5-5.4-4.4-8.6-5.8
	C34.2,0.7,30.6,0,27,0z"/>
<path d="M39.5,7.3H14.5v3.5h25.1V7.3z"/>
<path d="M25.2,7.3v32.2h3.5V7.3H25.2z"/>
<path d="M25.2,46.7v4.2h3.5v-4.2H25.2z"/>
<path d="M30.6,17.3c0.4,0.1,0.8,0.3,1.1,0.4c1.4,0.6,2.7,1.5,3.8,2.6c1.1,1.1,2,2.4,2.6,3.8l3.7-1.6c-0.8-1.9-2-3.6-3.4-5.1
	c-1.5-1.5-3.2-2.6-5.1-3.4c-0.9-0.4-1.8-0.7-2.7-0.9L30.6,17.3L30.6,17.3z"/>
<path d="M35.6,37.2c-1.1,1.1-2.4,2-3.8,2.6c-1.5,0.6-3.1,0.9-4.7,0.9c-1.6,0-3.2-0.3-4.7-0.9c-1.4-0.6-2.7-1.5-3.8-2.6
	c-1.1-1.1-2-2.4-2.6-3.8c-0.6-1.5-0.9-3.1-0.9-4.7c0-1.6,0.3-3.2,0.9-4.7c0.6-1.4,1.5-2.7,2.6-3.8c1.1-1.1,2.4-2,3.8-2.6
	c0.3-0.1,0.7-0.3,1-0.4v-4.1c-0.9,0.2-1.7,0.5-2.6,0.8c-1.9,0.8-3.6,2-5.1,3.4c-1.5,1.5-2.6,3.2-3.4,5.1c-0.8,2-1.3,4.1-1.3,6.2
	s0.4,4.3,1.3,6.2c0.8,1.9,2,3.6,3.4,5.1c1.5,1.5,3.2,2.6,5.1,3.4c2,0.8,4.1,1.3,6.2,1.3s4.3-0.4,6.2-1.3c1.9-0.8,3.6-2,5.1-3.4
	c1.5-1.5,2.6-3.2,3.4-5.1l-3.7-1.6C37.5,34.9,36.7,36.1,35.6,37.2L35.6,37.2z"/>
<path class="st1" d="M42,29.4l-5.6,3.3l7.1,3L42,29.4z"/>
</svg>
